src/icons/SVG/64px/Universe_Curtains_64px.svg

<svg width="64" height="64" viewBox="0 0 64 64" fill="none" xmlns="http://www.w3.org/2000/svg">
<g id="Square"> </g>
<g id="Icon">
<path id="Union" fill-rule="evenodd" clip-rule="evenodd" d="M8 6.5C7.17157 6.5 6.5 7.17157 6.5 8C6.5 8.82843 7.17157 9.5 8 9.5H11.8333V37.3333V56C11.8333 56.8284 12.5049 57.5 13.3333 57.5H24C24.4707 57.5 24.9141 57.2791 25.1975 56.9033C25.481 56.5275 25.5716 56.0405 25.4423 55.5879L24.8457 53.5H39.1543L38.5577 55.5879C38.4284 56.0405 38.519 56.5275 38.8025 56.9033C39.0859 57.2791 39.5293 57.5 40 57.5H50.6667C51.4951 57.5 52.1667 56.8284 52.1667 56V37.3333V9.5H56C56.8284 9.5 57.5 8.82843 57.5 8C57.5 7.17157 56.8284 6.5 56 6.5H50.6667H32H13.3333H8ZM40.0114 50.5L42.7257 41H33V50.5H40C40.0038 50.5 40.0076 50.5 40.0114 50.5ZM31 50.5V41H21.2743L23.9886 50.5C23.9924 50.5 23.9962 50.5 24 50.5H31ZM31 39H20.7029L20.5638 38.5133C20.7838 38.4499 21.0187 38.3741 21.2664 38.2833C22.7261 37.7481 24.6018 36.7013 26.4432 34.6757C28.1231 32.8278 29.7392 30.2071 31 26.4914V39ZM43.2971 39H33V26.4913C34.2608 30.2071 35.8769 32.8278 37.5568 34.6757C39.3982 36.7013 41.2739 37.7481 42.7336 38.2833C42.9813 38.3741 43.2162 38.4499 43.4362 38.5133L43.2971 39ZM14.8333 35.8333V9.5H30.4879C30.2687 22.9506 27.1035 29.4896 24.2234 32.6577C22.7315 34.2987 21.2739 35.0853 20.2336 35.4667C19.7098 35.6588 19.2849 35.7505 19.0067 35.7942C18.8677 35.8161 18.7656 35.8259 18.7067 35.8302C18.6789 35.8322 18.6608 35.833 18.653 35.8333H14.8333ZM49.1667 9.5H33.5121C33.7313 22.9506 36.8965 29.4896 39.7766 32.6577C41.2685 34.2987 42.7261 35.0853 43.7664 35.4667C44.2902 35.6588 44.7151 35.7505 44.9933 35.7942C45.1323 35.8161 45.2344 35.8259 45.2933 35.8302C45.3211 35.8322 45.3392 35.833 45.347 35.8333H49.1667V9.5ZM41.9886 54.5L46.4648 38.8333H49.1667V54.5H41.9886ZM14.8333 38.8333H17.5352L22.0114 54.5H14.8333V38.8333Z" fill="black"/>
</g>
</svg>

<svg xmlns="http://www.w3.org/2000/svg" viewBox="0 0 64 64">
  <g id="Square"> </g>
  <path fill-rule="evenodd" d="M8 6.5a1.5 1.5 0 100 3h3.833V56a1.5 1.5 0 001.5 1.5H24a1.5 1.5 0 001.442-1.912l-.596-2.088h14.308l-.596 2.088A1.5 1.5 0 0040 57.5h10.667a1.5 1.5 0 001.5-1.5V9.5H56a1.5 1.5 0 000-3H8zm32.011 44l2.715-9.5H33v9.5h7.011zM31 50.5V41h-9.726l2.715 9.5H31zM31 39H20.703l-.14-.487c.22-.063.456-.139.703-.23 1.46-.535 3.336-1.582 5.177-3.607 1.68-1.848 3.296-4.469 4.557-8.185V39zm12.297 0H33V26.491c1.26 3.716 2.877 6.337 4.557 8.185 1.841 2.025 3.717 3.072 5.177 3.607.247.091.482.167.702.23l-.139.487zm-28.464-3.167V9.5h15.655c-.22 13.45-3.384 19.99-6.265 23.158-1.491 1.64-2.95 2.427-3.99 2.809a6.554 6.554 0 01-1.226.327 3.681 3.681 0 01-.354.04h-3.82zM49.167 9.5H33.512c.22 13.45 3.385 19.99 6.265 23.158 1.492 1.64 2.95 2.427 3.99 2.809.523.192.948.284 1.226.327a3.681 3.681 0 00.354.04h3.82V9.5zm-7.178 45l4.476-15.667h2.702V54.5h-7.178zM14.833 38.833h2.702L22.011 54.5h-7.178V38.833z"/>
</svg>
